public/svg/profile.svg

<svg xmlns="http://www.w3.org/2000/svg" width="32" height="32" viewBox="0 0 24 24"><path fill="#292D32" d="M22 12c0-5.51-4.49-10-10-10S2 6.49 2 12c0 2.9 1.25 5.51 3.23 7.34 0 .01 0 .01-.01.02.1.1.22.18.32.27.06.05.11.1.17.14.18.15.38.29.57.43l.2.14c.19.13.39.25.6.36.07.04.15.09.22.13.2.11.41.21.63.3.08.04.16.08.24.11.22.09.44.17.66.24.08.03.16.06.24.08.24.07.48.13.72.19.07.02.14.04.22.05.28.06.56.1.85.13.04 0 .08.01.12.02.34.03.68.05 1.02.05.34 0 .68-.02 1.01-.05.04 0 .08-.01.12-.02.29-.03.57-.07.85-.13.07-.01.14-.04.22-.05.24-.06.49-.11.72-.19.08-.03.16-.06.24-.08.22-.08.45-.15.66-.24.08-.03.16-.07.24-.11.21-.09.42-.19.63-.3.08-.04.15-.09.22-.13.2-.12.4-.23.6-.36.07-.04.13-.09.2-.14.2-.14.39-.28.57-.43.06-.05.11-.1.17-.14.11-.09.22-.18.32-.27 0-.01 0-.01-.01-.02C20.75 17.51 22 14.9 22 12Zm-5.06 4.97c-2.71-1.82-7.15-1.82-9.88 0-.44.29-.8.63-1.1 1A8.48 8.48 0 0 1 3.5 12c0-4.69 3.81-8.5 8.5-8.5 4.69 0 8.5 3.81 8.5 8.5 0 2.32-.94 4.43-2.46 5.97-.29-.37-.66-.71-1.1-1Z"/><path fill="#292D32" d="M12 6.93c-2.07 0-3.75 1.68-3.75 3.75 0 2.03 1.59 3.68 3.7 3.74h.18a3.743 3.743 0 0 0 3.62-3.74c0-2.07-1.68-3.75-3.75-3.75Z"/></svg>

<svg width="32px" height="32px" viewBox="0 0 24 24" fill="none" xmlns="http://www.w3.org/2000/svg" stroke="#000000" stroke-width="0.00024000000000000003"><g id="SVGRepo_bgCarrier" stroke-width="0"></g><g id="SVGRepo_tracerCarrier" stroke-linecap="round" stroke-linejoin="round" stroke="#CCCCCC" stroke-width="0.096"></g><g id="SVGRepo_iconCarrier"> <path d="M22 12C22 6.49 17.51 2 12 2C6.49 2 2 6.49 2 12C2 14.9 3.25 17.51 5.23 19.34C5.23 19.35 5.23 19.35 5.22 19.36C5.32 19.46 5.44 19.54 5.54 19.63C5.6 19.68 5.65 19.73 5.71 19.77C5.89 19.92 6.09 20.06 6.28 20.2C6.35 20.25 6.41 20.29 6.48 20.34C6.67 20.47 6.87 20.59 7.08 20.7C7.15 20.74 7.23 20.79 7.3 20.83C7.5 20.94 7.71 21.04 7.93 21.13C8.01 21.17 8.09 21.21 8.17 21.24C8.39 21.33 8.61 21.41 8.83 21.48C8.91 21.51 8.99 21.54 9.07 21.56C9.31 21.63 9.55 21.69 9.79 21.75C9.86 21.77 9.93 21.79 10.01 21.8C10.29 21.86 10.57 21.9 10.86 21.93C10.9 21.93 10.94 21.94 10.98 21.95C11.32 21.98 11.66 22 12 22C12.34 22 12.68 21.98 13.01 21.95C13.05 21.95 13.09 21.94 13.13 21.93C13.42 21.9 13.7 21.86 13.98 21.8C14.05 21.79 14.12 21.76 14.2 21.75C14.44 21.69 14.69 21.64 14.92 21.56C15 21.53 15.08 21.5 15.16 21.48C15.38 21.4 15.61 21.33 15.82 21.24C15.9 21.21 15.98 21.17 16.06 21.13C16.27 21.04 16.48 20.94 16.69 20.83C16.77 20.79 16.84 20.74 16.91 20.7C17.11 20.58 17.31 20.47 17.51 20.34C17.58 20.3 17.64 20.25 17.71 20.2C17.91 20.06 18.1 19.92 18.28 19.77C18.34 19.72 18.39 19.67 18.45 19.63C18.56 19.54 18.67 19.45 18.77 19.36C18.77 19.35 18.77 19.35 18.76 19.34C20.75 17.51 22 14.9 22 12ZM16.94 16.97C14.23 15.15 9.79 15.15 7.06 16.97C6.62 17.26 6.26 17.6 5.96 17.97C4.44 16.43 3.5 14.32 3.5 12C3.5 7.31 7.31 3.5 12 3.5C16.69 3.5 20.5 7.31 20.5 12C20.5 14.32 19.56 16.43 18.04 17.97C17.75 17.6 17.38 17.26 16.94 16.97Z" fill="#292D32"></path> <path d="M12 6.92969C9.93 6.92969 8.25 8.60969 8.25 10.6797C8.25 12.7097 9.84 14.3597 11.95 14.4197C11.98 14.4197 12.02 14.4197 12.04 14.4197C12.06 14.4197 12.09 14.4197 12.11 14.4197C12.12 14.4197 12.13 14.4197 12.13 14.4197C14.15 14.3497 15.74 12.7097 15.75 10.6797C15.75 8.60969 14.07 6.92969 12 6.92969Z" fill="#292D32"></path> </g></svg>
